images/weather_shelter.svg

<?xml version="1.0" encoding="UTF-8" standalone="no"?>
<svg xmlns:dc="http://purl.org/dc/elements/1.1/" xmlns:cc="http://creativecommons.org/ns#" xmlns:rdf="http://www.w3.org/1999/02/22-rdf-syntax-ns#" xmlns:svg="http://www.w3.org/2000/svg" xmlns="http://www.w3.org/2000/svg" xmlns:sodipodi="http://sodipodi.sourceforge.net/DTD/sodipodi-0.dtd" xmlns:inkscape="http://www.inkscape.org/namespaces/inkscape" version="1.1" width="14" height="14" viewBox="0 0 14 14" id="svg2" sodipodi:docname="weather_shelter.svg" inkscape:version="1.0.1 (3bc2e813f5, 2020-09-07)">
  <sodipodi:namedview pagecolor="#ffffff" bordercolor="#666666" borderopacity="1" objecttolerance="10" gridtolerance="10" guidetolerance="10" inkscape:pageopacity="0" inkscape:pageshadow="2" inkscape:window-width="1847" inkscape:window-height="1056" id="namedview13593" showgrid="false" inkscape:zoom="16.857143" inkscape:cx="-3.4703389" inkscape:cy="7.0000001" inkscape:window-x="0" inkscape:window-y="0" inkscape:window-maximized="1" inkscape:current-layer="svg2" inkscape:pagecheckerboard="true" inkscape:document-rotation="0" />
  <defs id="defs3053" />
  <metadata id="metadata8">
    <rdf:RDF>
      <cc:Work rdf:about="">
        <dc:format>image/svg+xml</dc:format>
        <dc:type rdf:resource="http://purl.org/dc/dcmitype/StillImage" />
        <dc:title></dc:title>
      </cc:Work>
    </rdf:RDF>
  </metadata>
  <path style="fill:#000000;fill-opacity:1;fill-rule:evenodd;stroke:#ffffff;stroke-width:3;stroke-linecap:round;stroke-linejoin:round;stroke-miterlimit:4;stroke-dasharray:none;stroke-opacity:0.50196078" d="M 4.0078125,0 L 3.0078125,2 H 3.4765625 L 4.5234375,0 Z M 8.0078125,0 L 7.0078125,2 H 7.4765625 L 8.5234375,0 Z M 12.007812,0 L 11.007812,2 H 11.476562 L 12.523438,0 Z M 1,2 L 0,4 H 0.46875 L 1.5175781,2 Z M 5.0078125,2 L 4.0078125,4 H 4.4765625 L 5.5234375,2 Z M 9.0078125,2 L 8.0078125,4 H 8.4765625 L 9.5234375,2 Z M 13.007812,2 L 12.007812,4 H 12.476562 L 13.523438,2 Z M 2.5,4 L 1.5,6 H 1.96875 L 3.0175781,4 Z M 10.482422,4 L 9.4824219,6 H 9.9511719 L 11,4 Z M 7,5 L 0,9 H 2 L 3,8.5996094 V 13.482422 V 13.5 A 0.5,0.5 0 0 0 3.2402344,13.927734 A 0.5,0.5 0 0 0 3.7441406,13.935547 A 0.5,0.5 0 0 0 4,13.5 V 8.1992188 L 7,7 L 10,8.1992188 V 13.5 A 0.5,0.5 0 0 0 10.240234,13.927734 A 0.5,0.5 0 0 0 10.744141,13.935547 A 0.5,0.5 0 0 0 11,13.5 V 8.5996094 L 12,9 H 14 Z" id="outline" inkscape:connector-curvature="0" />
  <path id="rect4777" d="M 4.0078125 0 L 3.0078125 2 L 3.4765625 2 L 4.5234375 0 L 4.0078125 0 z M 8.0078125 0 L 7.0078125 2 L 7.4765625 2 L 8.5234375 0 L 8.0078125 0 z M 12.007812 0 L 11.007812 2 L 11.476562 2 L 12.523438 0 L 12.007812 0 z M 1 2 L 0 4 L 0.46875 4 L 1.5175781 2 L 1 2 z M 5.0078125 2 L 4.0078125 4 L 4.4765625 4 L 5.5234375 2 L 5.0078125 2 z M 9.0078125 2 L 8.0078125 4 L 8.4765625 4 L 9.5234375 2 L 9.0078125 2 z M 13.007812 2 L 12.007812 4 L 12.476562 4 L 13.523438 2 L 13.007812 2 z M 2.5 4 L 1.5 6 L 1.96875 6 L 3.0175781 4 L 2.5 4 z M 10.482422 4 L 9.4824219 6 L 9.9511719 6 L 11 4 L 10.482422 4 z M 7 5 L 0 9 L 2 9 L 3 8.5996094 L 3 13.482422 L 3 13.5 A 0.5 0.5 0 0 0 3.2402344 13.927734 A 0.5 0.5 0 0 0 3.7441406 13.935547 A 0.5 0.5 0 0 0 4 13.5 L 4 8.1992188 L 7 7 L 10 8.1992188 L 10 13.5 A 0.5 0.5 0 0 0 10.240234 13.927734 A 0.5 0.5 0 0 0 10.744141 13.935547 A 0.5 0.5 0 0 0 11 13.5 L 11 8.5996094 L 12 9 L 14 9 L 7 5 z " style="fill:#000000;fill-opacity:1;fill-rule:evenodd;stroke:none;stroke-opacity:1" />
</svg>

<svg xmlns="http://www.w3.org/2000/svg" width="14" height="14">
    <path d="M4.008 0l-1 2h.469l1.046-2zm4 0l-1 2h.469l1.046-2zm4 0l-1 2h.469l1.046-2zM1 2L0 4h.469l1.049-2zm4.008 0l-1 2h.469l1.046-2zm4 0l-1 2h.469l1.046-2zm4 0l-1 2h.469l1.046-2zM2.5 4l-1 2h.469l1.049-2zm7.982 0l-1 2h.47L11 4zM7 5L0 9h2l1-.4v4.9a.5.5 0 00.24.428.5.5 0 00.504.008A.5.5 0 004 13.5V8.2L7 7l3 1.2v5.3a.5.5 0 00.24.428.5.5 0 00.504.008A.5.5 0 0011 13.5V8.6l1 .4h2z" fill-rule="evenodd" stroke="#fff" stroke-width="3" stroke-linecap="round" stroke-linejoin="round" stroke-opacity=".5"/>
    <path d="M4.008 0l-1 2h.469l1.046-2h-.515zm4 0l-1 2h.469l1.046-2h-.515zm4 0l-1 2h.469l1.046-2h-.515zM1 2L0 4h.469l1.049-2H1zm4.008 0l-1 2h.469l1.046-2h-.515zm4 0l-1 2h.469l1.046-2h-.515zm4 0l-1 2h.469l1.046-2h-.515zM2.5 4l-1 2h.469l1.049-2H2.5zm7.982 0l-1 2h.47L11 4h-.518zM7 5L0 9h2l1-.4v4.9a.5.5 0 00.24.428.5.5 0 00.504.008A.5.5 0 004 13.5V8.2L7 7l3 1.2v5.3a.5.5 0 00.24.428.5.5 0 00.504.008A.5.5 0 0011 13.5V8.6l1 .4h2L7 5z" fill-rule="evenodd"/>
</svg>
